X: 1
T: The Merry Blacksmith
R: reel
M: 4/4
L: 1/8
K: Dmaj
|:AB|d2dA BAFA|ABdA BAFA|ABde fded|Beed egfe|d3A BAFA-|ABdA BAFA-|ABde fdec|dBAF D2:||:fg|a2ag f2fe|d2dA BAFA-|ABde fded|Beed egfg|abag fgfe|dcdA BAFA|ABde fdec|dBAF D2:|


Tune 72	Setting 22729

